X:12
T:Il est bien temps
R:Bourrée à 2 temps
O:France
A:
C:Trad.
Z:Transcrit et/ou corrigé par Michel BELLON - 2006-05-29
Z:Pour toute observation mailto:galouvielle@free.fr
M:2/4
L:1/16
K:C
E2|:\
A4B2c2|B3A ^G2E2|A4B2c2|d3c B2c2|A4B2c2|B3A ^G2E2|A3c B2^G2|[1 A6E2:|:[2A8|:
A4B2c2|d3c B2c2|e4^d2c2|BcBA ^G2E2|A4B2c2|d3c B2c2|A3c B2^G2|A8:|
T:La bergère de Coulandon
%R:Bourrée à 2 temps
%O:France
%A:
%C:Trad.
Z:Transcrit et/ou corrigé par Michel BELLON - 2006-05-29
Z:Pour toute observation mailto:galouvielle@free.fr
M:2/4
L:1/16
K:Em
c3c B2c2|A6Bc|d3c B2A2|B4G4|c4B2c2|A6Bc|d3c B2A2|G8:|:
A3B A2G2|^F6G2|A3B c2A2|B4G4|A3B A2G2|^F6G2|A3B c2A2|G8:|

%%footer $D   Galouvielle-MBe 2006 \nBourrée à 2 temps (France)
